svg/ui icons/UI_thumbs-down.svg

<?xml version='1.0' encoding='utf-8'?>
<svg xmlns="http://www.w3.org/2000/svg" width="27" height="26" viewBox="0 0 27 26" fill="none" stroke="currentColor" stroke-width="1.5">
<path d="M26.0498 3.82956H26.0499L26.0497 3.82662C26.0207 3.33626 25.617 2.93047 25.1232 2.93047H20.5215C20.0282 2.93047 19.6224 3.33633 19.6224 3.82956V13.0058C19.6224 13.4991 20.0282 13.9049 20.5215 13.9049H25.1507C25.644 13.9049 26.0498 13.499 26.0498 13.0058V3.82956ZM25.1004 3.87939L25.0733 12.9829L20.5439 12.9562V3.85249L25.1004 3.87939Z" fill="none" stroke="currentColor" stroke-width="1.5" />
<path d="M18.2523 3.37078L18.2509 3.38613L18.2522 3.37076C17.2747 3.28932 16.4872 2.96347 15.9988 2.69208L15.9984 2.6919C15.389 2.35956 14.6973 2.16594 13.9788 2.11062L13.9788 2.11047H13.9749C13.975 2.11047 13.975 2.11047 13.9749 2.11047C13.9747 2.11046 13.9741 2.11045 13.973 2.11042L13.9668 2.11021L13.9449 2.10935L13.8659 2.10602L13.5783 2.09382C13.3327 2.08355 12.9846 2.06943 12.564 2.05402C11.7228 2.0232 10.5917 1.98724 9.41167 1.9667C8.23179 1.94615 7.00255 1.941 5.96523 1.97185C4.93054 2.00261 4.07962 2.06926 3.66128 2.19474C3.1018 2.36257 2.6795 2.69934 2.42625 3.17789C2.04154 3.89248 2.16938 4.73786 2.25197 5.15803C1.17576 6.30172 1.29216 7.4225 1.59014 8.07027C1.03518 8.7751 0.91386 9.56573 0.958421 10.2443C1.00256 10.9164 1.20951 11.4813 1.32174 11.7508C0.859209 13.4036 1.41179 14.4303 1.99669 15.0151C2.52608 15.5444 3.2223 15.8505 3.97326 15.9062L3.97438 15.9063L9.76549 16.2053C9.76939 16.2891 9.75353 16.3855 9.7204 16.4935C9.68182 16.6192 9.62078 16.7575 9.54447 16.9051C9.41462 17.1561 9.24303 17.4294 9.06796 17.7082C9.03699 17.7575 9.00591 17.807 8.97493 17.8566C8.72866 18.2397 8.48113 18.6248 8.26088 19.0376L8.26053 19.0383C7.76056 20.0107 7.73258 21.1775 8.20494 22.1778L8.20541 22.1787C8.21297 22.1939 8.22047 22.207 8.22695 22.2183L8.22833 22.2207C8.23438 22.2311 8.23909 22.2393 8.24313 22.2474C8.25097 22.263 8.255 22.2758 8.255 22.2934V22.3061L8.26098 22.3172C8.65424 23.0475 9.43942 23.4939 10.3867 23.4939C11.3877 23.4939 12.2563 23.021 12.6499 22.2341C13.1345 21.3054 13.5742 20.481 13.9585 19.7606C14.0932 19.5082 14.2211 19.2685 14.3416 19.0415C15.2506 18.4588 15.8075 17.5762 16.1439 16.7763C16.4769 15.9845 16.5957 15.2697 16.6256 14.9967C17.0602 14.3051 17.3571 13.9218 17.5908 13.7014C17.8227 13.4828 17.9919 13.4247 18.1764 13.3852L18.1771 13.385C18.557 13.2974 18.8185 12.9477 18.8185 12.5693V4.07977C18.8466 3.69869 18.5816 3.40065 18.2523 3.37078ZM15.8225 14.5423L15.8223 14.5421L15.82 14.5467L15.8182 14.5504C15.7914 14.6043 15.7631 14.661 15.7352 14.7451L15.7326 14.7527V14.7608C15.7326 14.7606 15.7326 14.7613 15.7325 14.7633L15.7319 14.771C15.7313 14.7776 15.7304 14.7864 15.7292 14.7975C15.7266 14.8197 15.7226 14.8503 15.7169 14.8884C15.7055 14.9647 15.6873 15.0707 15.6601 15.199C15.6057 15.4555 15.5157 15.8005 15.373 16.1742C15.0873 16.9223 14.5933 17.7793 13.759 18.278C13.6936 18.3111 13.6336 18.3738 13.5772 18.4584L13.577 18.4583L13.5749 18.4622C13.0817 19.3666 12.5061 20.4626 11.8213 21.7775L11.821 21.7783C11.5854 22.2494 11.0038 22.5449 10.3591 22.5449C9.74382 22.5449 9.26917 22.2779 9.03309 21.8582L9.03477 21.8573L9.02487 21.8474C9.01818 21.8407 9.01441 21.8342 9.00859 21.8197C9.00735 21.8166 9.00599 21.813 9.00449 21.8091C8.99892 21.7945 8.99128 21.7746 8.97954 21.7512C8.63076 21.0265 8.65737 20.1668 9.03391 19.4406L9.03423 19.4399C9.17223 19.1641 9.33815 18.9034 9.50314 18.6443C9.56578 18.5459 9.62828 18.4477 9.68906 18.349C9.96231 17.939 10.2316 17.5318 10.4115 17.1339C10.5914 16.7362 10.685 16.3414 10.6001 15.9571C10.5406 15.576 10.2182 15.3153 9.84259 15.2865L9.84259 15.2865L9.84131 15.2864L3.95208 14.9851L3.95202 14.9851C3.41656 14.9584 2.93514 14.7444 2.56046 14.3697C1.97528 13.7845 1.83658 12.957 2.1622 11.8721L2.16225 11.8721L2.16282 11.8698C2.19102 11.7568 2.19466 11.6323 2.13177 11.5336C2.12826 11.5248 2.12228 11.5113 2.11434 11.4933C2.05239 11.353 1.87052 10.9412 1.801 10.4199C1.71999 9.8124 1.79492 9.07041 2.39634 8.46911L2.39634 8.4691C2.55011 8.31534 2.58161 8.03973 2.42671 7.85394L2.42687 7.85381L2.42366 7.85061C2.42381 7.85075 2.42359 7.85047 2.42303 7.84976C2.42027 7.84622 2.40913 7.83193 2.39233 7.80538C2.37319 7.77512 2.34831 7.73146 2.32301 7.67573C2.27241 7.56425 2.2204 7.40505 2.20883 7.20855C2.18583 6.81778 2.3223 6.26996 2.97069 5.64854L2.9707 5.64855L2.97145 5.6478C3.09005 5.5292 3.15586 5.34525 3.09277 5.18502L3.09255 5.18429L3.09023 5.17656C3.0882 5.16967 3.08522 5.15937 3.08154 5.14597C3.07417 5.11916 3.06398 5.07997 3.05282 5.0309C3.03048 4.9327 3.00436 4.79531 2.9892 4.63869C2.95871 4.32355 2.9735 3.93898 3.14394 3.63753L3.14399 3.63757L3.14513 3.63529C3.27394 3.37767 3.50647 3.21986 3.82798 3.1127C4.08133 3.03282 4.57474 2.97815 5.22585 2.94387C5.87514 2.90969 6.67535 2.89598 7.53783 2.89598C9.75559 2.89598 12.3569 2.97812 13.8352 3.06023L13.8356 3.06025C14.4031 3.0872 14.9705 3.24951 15.4569 3.51942C15.9749 3.81927 16.8137 4.17207 17.8421 4.28776L17.8417 12.4731C17.5661 12.5593 17.3091 12.6958 17.0188 12.9678C16.6887 13.277 16.3162 13.7607 15.8225 14.5423Z" fill="none" stroke="currentColor" stroke-width="1.5" />
</svg>

<?xml version="1.0" encoding="UTF-8"?>
<svg id="Layer_1" data-name="Layer 1" xmlns="http://www.w3.org/2000/svg" width="27" height="26" viewBox="0 0 27 26">
  <path style="fill: currentColor" d="M26.0498,3.8296h0l-.0002-.0029c-.029-.4904-.4327-.8962-.9265-.8962h-4.6017c-.4933,0-.8991.4059-.8991.8991v9.1762c0,.4933.4058.8991.8991.8991h4.6292c.4933,0,.8991-.4059.8991-.8991V3.8296ZM25.1004,3.8794l-.0271,9.1035-4.5294-.0267V3.8525l4.5565.0269Z"/>
  <path style="fill: currentColor" d="M18.2523,3.3708l-.0014.0154.0013-.0154c-.9775-.0814-1.765-.4073-2.2534-.6787l-.0004-.0002c-.6094-.3323-1.3011-.526-2.0196-.5813h0s-.0039-.0001-.0039-.0001t0,0s-.0008,0-.0019,0l-.0062-.0002-.0219-.0009-.079-.0033-.2876-.0122c-.2456-.0103-.5937-.0244-1.0143-.0398-.8412-.0308-1.9723-.0668-3.1523-.0873-1.1799-.0206-2.4091-.0257-3.4464.0052-1.0347.0308-1.8856.0974-2.304.2229-.5595.1678-.9818.5046-1.235.9832-.3847.7146-.2569,1.56-.1743,1.9801-1.0762,1.1437-.9598,2.2645-.6618,2.9122-.555.7048-.6763,1.4955-.6317,2.174.0441.6721.2511,1.237.3633,1.5065-.4625,1.6528.09,2.6795.675,3.2643.5294.5293,1.2256.8354,1.9766.8911h.0011s5.7911.2991,5.7911.2991c.0039.0838-.012.1802-.0451.2882-.0386.1257-.0996.264-.1759.4116-.1298.251-.3014.5243-.4765.8031-.031.0493-.062.0988-.093.1484-.2463.3831-.4938.7682-.714,1.181l-.0003.0007c-.5.9724-.528,2.1392-.0556,3.1395l.0005.0009c.0076.0152.0151.0283.0215.0396l.0014.0024c.0061.0104.0108.0186.0148.0267.0078.0156.0119.0284.0119.046v.0127l.006.0111c.3933.7303,1.1784,1.1767,2.1257,1.1767,1.001,0,1.8696-.4729,2.2632-1.2598.4846-.9287.9243-1.7531,1.3086-2.4735.1347-.2524.2626-.4921.3831-.7191.909-.5827,1.4659-1.4653,1.8023-2.2652.333-.7918.4518-1.5066.4817-1.7796.4346-.6916.7315-1.0749.9652-1.2953.2319-.2186.4011-.2767.5856-.3162l.0007-.0002c.3799-.0876.6414-.4373.6414-.8157V4.0798c.0281-.3811-.2369-.6791-.5662-.709ZM15.8225,14.5423l-.0002-.0002-.0023.0046-.0018.0037c-.0268.0539-.0551.1106-.083.1947l-.0026.0076v.0081s0,.0005-.0001.0025l-.0006.0077c-.0006.0066-.0015.0154-.0027.0265-.0026.0222-.0066.0528-.0123.0909-.0114.0763-.0296.1823-.0568.3106-.0544.2565-.1444.6015-.2871.9752-.2857.7481-.7797,1.6051-1.614,2.1038-.0654.0331-.1254.0958-.1818.1804h-.0002s-.0021.0038-.0021.0038c-.4932.9044-1.0688,2.0004-1.7536,3.3153l-.0003.0008c-.2356.4711-.8172.7666-1.4619.7666-.6153,0-1.0899-.267-1.326-.6867l.0017-.0009-.0099-.0099c-.0067-.0067-.0105-.0132-.0163-.0277-.0012-.0031-.0026-.0067-.0041-.0106-.0056-.0146-.0132-.0345-.025-.0579-.3488-.7247-.3222-1.5844.0544-2.3106l.0003-.0007c.138-.2758.3039-.5365.4689-.7956.0626-.0984.1251-.1966.1859-.2953.2732-.41.5425-.8172.7224-1.2151.1799-.3977.2735-.7925.1886-1.1768-.0595-.3811-.3819-.6418-.7575-.6706h-.0013s-5.8892-.3014-5.8892-.3014h0c-.5355-.0267-1.0169-.2407-1.3916-.6154-.5852-.5852-.7239-1.4127-.3983-2.4976h0l.0006-.0023c.0282-.113.0318-.2375-.0311-.3362-.0035-.0088-.0095-.0223-.0174-.0403-.0619-.1403-.2438-.5521-.3133-1.0734-.081-.6075-.0061-1.3495.5953-1.9508h0c.1538-.1538.1853-.4294.0304-.6152h.0002s-.0032-.0033-.0032-.0033c.0001.0001,0-.0001-.0006-.0008-.0028-.0035-.0139-.0178-.0307-.0444-.0191-.0303-.044-.0739-.0693-.1296-.0506-.1115-.1026-.2707-.1142-.4672-.023-.3908.1135-.9386.7619-1.56h0s.0008-.0007.0008-.0007c.1186-.1186.1844-.3025.1213-.4628l-.0002-.0007-.0023-.0077c-.002-.0069-.005-.0172-.0087-.0306-.0074-.0268-.0176-.066-.0287-.1151-.0223-.0982-.0485-.2356-.0636-.3922-.0305-.3151-.0157-.6997.1547-1.0012h0s.0011-.0022.0011-.0022c.1288-.2576.3613-.4154.6829-.5226.2533-.0799.7468-.1346,1.3979-.1688.6493-.0342,1.4495-.0479,2.312-.0479,2.2178,0,4.8191.0821,6.2974.1643h.0004c.5675.027,1.1349.1893,1.6213.4592.518.2998,1.3568.6527,2.3852.7683l-.0004,8.1853c-.2756.0862-.5326.2227-.8229.4947-.3301.3092-.7026.7929-1.1963,1.5745Z"/>
</svg>
